X:1
T:Shine On, O Star!
T:Shine On, O Star!
T:Ira David Sankey
T:Victoria Stuart, 1886
T:Public Domain Courtesy of the Cyber Hymnal™
T:Public Domain Courtesy of the Cyber Hymnal™
C:Ira David Sankey
Z:Public Domain
Z:Courtesy of the Cyber Hymnal™
%%score ( 1 2 ) ( 3 4 )
L:1/8
Q:1/4=110
M:6/8
K:Eb
V:1 treble 
V:2 treble 
V:3 bass 
V:4 bass 
V:1
 [EB] | [EB]2 [EB] (cd)[Ae] | [Ge]3 [EB]2 [EG] | [GB]2 [Ac] [GB]2 [DF] | [EG]3- [EG]2 [EB] | %5
w: 1.~Shine|on, O Star * of|beau- ty, Thou|Christ en- throned a-|bove; * Re-|
w: 2.~Shine|on, O Star * of|glo- ry, We|lift our eyes to|Thee; * Be-|
w: 3.~Shine|on, O Star * un-|chang- ing, And|guide our pil- grim|way, * Un-|
w: 4.~And|when, with Thy * re-|deemed ones, We|reach the heav’n- ly|shore, * May|
 [Ec]2 [Ec] (cd)[Ae] | [Ge]3 [EB]2 [Ec] | [EB]2 E [EG]2 [DF] | E3- E2 ||"^Refrain" [GB] | %10
w: flect- ing in * Thy|bright- ness, Our|Fa- ther’s look of|love. *||
w: yond the clouds * that|ga- ther, Thy|ra- diant light we|see. *|Shine|
w: til we see * the|dawn- ing Of|Heav’n’s e- ter- nal|day. *||
w: we with Thee * in|glo- ry Shine|on for- ev- er-|more. *||
 [Ac]3- [Ac]2 [ce] | B3- [GB]2 [EB] | [Ad]2 [Gd] [Ad][Ac][Fd] | e3- [Ge]2 [GB] | %14
w: ||||
w: on, * shine|on, shine~on, Thou|bright and beau- ti- ful|Star, shine~on. Shine|
w: ||||
w: ||||
 [Ac]3- [Ac]2 [ce] | B3- [GB]2 [GB] | [Fd]2 [Fd] [Fd][Ge]"^riten."[Af] | e3- [Ge]2 |] %18
w: ||||
w: on, * shine|on, shine~on, Thou|bright and beau- ti- ful|Star, shine~on.|
w: ||||
w: ||||
V:2
 x | x3 E2 x | x6 | x6 | x6 | x3 E2 x | x6 | x2 E x3 | E3- E2 || x | x6 | G2 E x3 | x6 | (GE)A x3 | %14
 x6 | G2 E x3 | x6 | (GE)A x2 |] %18
V:3
 [E,G,] | [E,G,]2 [E,G,] (A,B,)[A,,C] | [E,B,]3 [E,G,]2 [E,B,] | [B,,E]2 [B,,E] [B,,D]2 [B,,B,] | %4
 [E,B,]3- [E,B,]2 [E,G,] | [A,,A,]2 [A,,A,] (A,B,)[A,,C] | [E,B,]3 [E,G,]2 A, | %7
 [G,B,]2 [A,C] B,2 [B,,A,] | [E,G,]3- [E,G,]2 || z | z2 [A,,E] [A,,E]2 z | %11
 z2 [E,G,] [E,B,]2 [E,G,] | [B,,F,]2 [B,,B,] [B,,B,][B,,B,][B,,B,] | (B,G,)[E,C] [E,B,]2 z | %14
 z2 [A,,E] [A,,E]2 z | z2 [E,G,] [E,B,]2 [E,B,] | [B,,B,]2 [B,,B,] [B,,B,][B,,B,][B,,B,] | %17
 (B,G,)[E,C] [E,B,]2 |] %18
V:4
 x | x3 A,,2 x | x6 | x6 | x6 | x3 A,,2 x | x5 A, | x3 B,2 x | x5 || x | x6 | x6 | x6 | E,2 x4 | %14
 x6 | x6 | x6 | E,2 x3 |] %18

